static/assets/template/assets/img/icons/essential/detailed/Fit.svg

<svg height="144" viewBox="0 0 154 144" width="154" xmlns="http://www.w3.org/2000/svg"><g fill="none" fill-rule="evenodd" transform="translate(2 2)"><path d="m150.1.2h-149.8c4.5 12.3 6.7 18.7 12.4 20.9h.1c11.9 81.4 14.7 75.1 9 93.7-1.6 5.3-3.3 9.5-2.5 14.5 11.6 3.9 43.2 17.6 93.4 5.9 24.1-5.6 20.5-6.5 14.9-26.4-2.7-9.3-.5-15.2 10.1-87.7h.1c.2-.1 0 0 .4-.1h-.2c5.5-2.4 7.7-8.7 12.1-20.8z" fill-rule="nonzero"/><path d="m137.9 22.3h.2c-.4.1-.3 0-.4.1h-.1c-9.5 72.5-11.4 78.4-9 87.7 5.1 19.9 8.3 20.8-13.3 26.4-16.5 4.3-30.8 5.2-42.8 4.4-11.8-.8-21.3-3.2-28.5-5.7-.1 0-.2-.1-.3-.1-7.6-2.6-11.9-10.9-9.7-18.8 0-.1 0-.1 0-.2 5.1-18.6 2.6-12.4-8.1-93.7-.4-.2-.8-.4-1.2-.6-.6-.4-1.2-.9-1.8-1.5-.1-.1-.1-.2-.2-.2-6.3-7-1-18.5 8.4-18.5h117.7c-4 12.1-6 18.4-10.9 20.7z" fill="#bad8ff" fill-rule="nonzero"/><path d="m120.9 21.1h.2c-.4.1-.2 0-.4.1h-.1c-9.6 73-11.5 79-9.1 88.4 5.1 20.1 8.4 20.9-13.4 26.6-9.6 2.5-18.5 3.9-26.6 4.4-11.2-.8-20.4-3-27.6-5.3-.1 0-.2-.1-.3-.1-.4-.1-.7-.2-1.1-.4-7.7-2.6-12.1-11-9.9-19 0-.1 0-.1 0-.2 5.1-18.7 2.6-12.5-8-93.8 0-.2-.1-.4-.1-.6h-.1c-.7-.3-1.3-.6-1.9-1.1-6.3-7-1-18.5 8.4-18.5h93.3c3.5 0 5.9 3.4 4.8 6.7-2.4 7-4.4 11-8.1 12.8z" fill-rule="nonzero"/><g stroke-linecap="round" stroke-linejoin="round" stroke-width="3"><path d="m75 49.6v61.3"/><path d="m53.5 104.2c4.4 2 14.8 4 21.8 1.3"/><path d="m53.5 84.8c4.4 2 14.8 4 21.8 1.3"/><path d="m54.3 66c4.7 1.9 14.4 3.5 21 1"/><path d="m98.1 104.2c-4.4 2-14.8 4-21.8 1.3"/><path d="m98.1 84.8c-4.4 2-14.8 4-21.8 1.3"/><path d="m97.3 66c-4.7 1.9-14.4 3.5-21 1"/><path d="m46.2 47.7c-.4 1-.8 2.2-1.2 3.5-2.2 8.4-5.6 15.3-9.5 19.3"/><path d="m67.8 39.2c-6.6 0-12-.2-16.1 2"/><path d="m83.5 39.2c11.4 0 19.4-.7 22.8 12.1 2.2 8.5 5.7 15.6 9.6 19.5"/><path d="m13.6 21.9c2.3 16 4.7 32 7 48.1 1.2 8 2.3 16 3.5 24 1.3 8.1-.1 13.1-2.4 20.7-1.6 5.3-3.3 9.5-2.5 14.5"/><path d="m150.1.2c-4.5 12.3-6.7 18.7-12.4 20.9"/><path d="m138.2 20.9c-1.2.2-3 .6-6.8.8-10.4.7-41.3.7-41.3.7"/><path d="m.3.2c4.5 12.3 6.7 18.7 12.4 20.9"/><path d="m60 22.4h.3"/><path d="m13.4 21.2c1.3.4 4.7 1.1 11.3 1.1 5.6 0 20.2 0 28.1.1"/><path d="m28.3 132.4c-.1 0-.3-.1-.4-.1"/><path d="m137.3 21.9c-10.7 73.5-12.5 77.4-9.8 86.8 5.7 19.9 9.3 20.8-14.9 26.4-24.6 5.8-53.1 6.6-78.1-.7"/></g><circle cx="75.3" cy="122.9" fill-rule="nonzero" r="3.7"/></g></svg>

<?xml version="1.0" encoding="UTF-8"?>
<svg width="154px" height="144px" viewBox="0 0 154 144" version="1.1" xmlns="http://www.w3.org/2000/svg" xmlns:xlink="http://www.w3.org/1999/xlink">
    <!-- Generator: Sketch 51.2 (57519) - http://www.bohemiancoding.com/sketch -->
    <title>Fit</title>
    <desc>Created with Sketch.</desc>
    <defs></defs>
    <g id="Page-1" stroke="none" stroke-width="1" fill="none" fill-rule="evenodd">
        <g id="Fit" transform="translate(2.000000, 2.000000)">
            <path d="M150.1,0.2 L0.3,0.2 C4.8,12.5 7,18.9 12.7,21.1 L12.8,21.1 C24.7,102.5 27.5,96.2 21.8,114.8 C20.2,120.1 18.5,124.3 19.3,129.3 C30.9,133.2 62.5,146.9 112.7,135.2 C136.8,129.6 133.2,128.7 127.6,108.8 C124.9,99.5 127.1,93.6 137.7,21.1 L137.8,21.1 C138,21 137.8,21.1 138.2,21 L138,21 C143.5,18.6 145.7,12.3 150.1,0.2 Z" id="Shape" class="fill-neutral" fill-rule="nonzero"></path>
            <path d="M137.9,22.3 L138.1,22.3 C137.7,22.4 137.8,22.3 137.7,22.4 L137.6,22.4 C128.1,94.9 126.2,100.8 128.6,110.1 C133.7,130 136.9,130.9 115.3,136.5 C98.8,140.8 84.5,141.7 72.5,140.9 C60.7,140.1 51.2,137.7 44,135.2 C43.9,135.2 43.8,135.1 43.7,135.1 C36.1,132.5 31.8,124.2 34,116.3 C34,116.2 34,116.2 34,116.1 C39.1,97.5 36.6,103.7 25.9,22.4 C25.5,22.2 25.1,22 24.7,21.8 C24.1,21.4 23.5,20.9 22.9,20.3 C22.8,20.2 22.8,20.1 22.7,20.1 C16.4,13.1 21.7,1.6 31.1,1.6 L148.8,1.6 C144.8,13.7 142.8,20 137.9,22.3 Z" id="Shape" fill="#BAD8FF" fill-rule="nonzero"></path>
            <path d="M120.9,21.1 L121.1,21.1 C120.7,21.2 120.9,21.1 120.7,21.2 L120.6,21.2 C111,94.2 109.1,100.2 111.5,109.6 C116.6,129.7 119.9,130.5 98.1,136.2 C88.5,138.7 79.6,140.1 71.5,140.6 C60.3,139.8 51.1,137.6 43.9,135.3 C43.8,135.3 43.7,135.2 43.6,135.2 C43.2,135.1 42.9,135 42.5,134.8 C34.8,132.2 30.4,123.8 32.6,115.8 C32.6,115.7 32.6,115.7 32.6,115.6 C37.7,96.9 35.2,103.1 24.6,21.8 C24.6,21.6 24.5,21.4 24.5,21.2 L24.4,21.2 C23.7,20.9 23.1,20.6 22.5,20.1 C16.2,13.1 21.5,1.6 30.9,1.6 L124.2,1.6 C127.7,1.6 130.1,5 129,8.3 C126.6,15.3 124.6,19.3 120.9,21.1 Z" id="Shape" class="fill-primary-100" fill-rule="nonzero"></path>
            <path d="M75,49.6 L75,110.9" id="Shape" class="stroke-primary" stroke-width="3" stroke-linecap="round" stroke-linejoin="round"></path>
            <path d="M53.5,104.2 C57.9,106.2 68.3,108.2 75.3,105.5" id="Shape" class="stroke-primary" stroke-width="3" stroke-linecap="round" stroke-linejoin="round"></path>
            <path d="M53.5,84.8 C57.9,86.8 68.3,88.8 75.3,86.1" id="Shape" class="stroke-primary" stroke-width="3" stroke-linecap="round" stroke-linejoin="round"></path>
            <path d="M54.3,66 C59,67.9 68.7,69.5 75.3,67" id="Shape" class="stroke-primary" stroke-width="3" stroke-linecap="round" stroke-linejoin="round"></path>
            <path d="M98.1,104.2 C93.7,106.2 83.3,108.2 76.3,105.5" id="Shape" class="stroke-primary" stroke-width="3" stroke-linecap="round" stroke-linejoin="round"></path>
            <path d="M98.1,84.8 C93.7,86.8 83.3,88.8 76.3,86.1" id="Shape" class="stroke-primary" stroke-width="3" stroke-linecap="round" stroke-linejoin="round"></path>
            <path d="M97.3,66 C92.6,67.9 82.9,69.5 76.3,67" id="Shape" class="stroke-primary" stroke-width="3" stroke-linecap="round" stroke-linejoin="round"></path>
            <path d="M46.2,47.7 C45.8,48.7 45.4,49.9 45,51.2 C42.8,59.6 39.4,66.5 35.5,70.5" id="Shape" class="stroke-primary" stroke-width="3" stroke-linecap="round" stroke-linejoin="round"></path>
            <path d="M67.8,39.2 C61.2,39.2 55.8,39 51.7,41.2" id="Shape" class="stroke-primary" stroke-width="3" stroke-linecap="round" stroke-linejoin="round"></path>
            <path d="M83.5,39.2 C94.9,39.2 102.9,38.5 106.3,51.3 C108.5,59.8 112,66.9 115.9,70.8" id="Shape" class="stroke-primary" stroke-width="3" stroke-linecap="round" stroke-linejoin="round"></path>
            <path d="M13.6,21.9 C15.9,37.9 18.3,53.9 20.6,70 C21.8,78 22.9,86 24.1,94 C25.4,102.1 24,107.1 21.7,114.7 C20.1,120 18.4,124.2 19.2,129.2" id="Shape" class="stroke-primary" stroke-width="3" stroke-linecap="round" stroke-linejoin="round"></path>
            <path d="M150.1,0.2 C145.6,12.5 143.4,18.9 137.7,21.1" id="Shape" class="stroke-primary" stroke-width="3" stroke-linecap="round" stroke-linejoin="round"></path>
            <path d="M138.2,20.9 C137,21.1 135.2,21.5 131.4,21.7 C121,22.4 90.1,22.4 90.1,22.4" id="Shape" class="stroke-primary" stroke-width="3" stroke-linecap="round" stroke-linejoin="round"></path>
            <path d="M0.3,0.2 C4.8,12.5 7,18.9 12.7,21.1" id="Shape" class="stroke-primary" stroke-width="3" stroke-linecap="round" stroke-linejoin="round"></path>
            <path d="M60,22.4 C60.2,22.4 60.3,22.4 60.3,22.4" id="Shape" class="stroke-primary" stroke-width="3" stroke-linecap="round" stroke-linejoin="round"></path>
            <path d="M13.4,21.2 C14.7,21.6 18.1,22.3 24.7,22.3 C30.3,22.3 44.9,22.3 52.8,22.4" id="Shape" class="stroke-primary" stroke-width="3" stroke-linecap="round" stroke-linejoin="round"></path>
            <path d="M28.3,132.4 C28.2,132.4 28,132.3 27.9,132.3" id="Shape" class="stroke-primary" stroke-width="3" stroke-linecap="round" stroke-linejoin="round"></path>
            <path d="M137.3,21.9 C126.6,95.4 124.8,99.3 127.5,108.7 C133.2,128.6 136.8,129.5 112.6,135.1 C88,140.9 59.5,141.7 34.5,134.4" id="Shape" class="stroke-primary" stroke-width="3" stroke-linecap="round" stroke-linejoin="round"></path>
            <circle id="Oval" class="fill-primary" fill-rule="nonzero" cx="75.3" cy="122.9" r="3.7"></circle>
        </g>
    </g>
</svg>
